!!!SOCIAL_FUNCTION:	songs connected with stories
!!!PDT:	1943
!!!OTL: No_73_Wrap_a_Feather_Around_Me.krn
!!!REG: British Columbia
**kern
*staff1
=1-
*clefF4
*k[f#c#g#d#a#]
*M2/4
4r
8G#\L
8G#\J
=2!|:
4.G#\
8G#\
=3
8G#\
8r
8B\L
8B#\J
=4||
*M3/4
4c#\
4c#\
12B\L
12B\
12c#\J
=5
4B\
4c#\
8e\L
16c#\L
16c#\JJ
=6
4.B\
8G#\
4G#\
=7||
*M2/4
2G#\
=8
4.r
8G#\
=9
8G#\L
8B\J
8e\L
8e\J
=10||
*M3/4
4c#\
4.B\
16G#\LL
16G#\JJ
=11||
*M2/4
4G#\
8r
8e\
=12
4e\
8f#\L
8e\J
=13
8e\L
[8c#\J
8c#\L]
8B\J
=14
4c#\
12e\L
12e\
12e\J
=15||
*M3/4
4c#\
4.B\
8G#\
=16||
*M2/4
4G#\
8r
8e\
=17
8e\L
(8c#\J
12c#\L)
12B\
12c#\J
=18||
*M3/4
4c#\
4.B\
8G#\
=19||
*M2/4
4G#\
8r
8e\
=20||
*M3/4
8e\L
[8c#\J
4c#\]
8c#\L
8c#\J
=21
4B\
4c#\
12e\L
12e\
12c#\J
=22
4c#\
4B\
8G#\L
8G#\J
=23
2.G#\
=24||
*M2/4
8G#\
8r
8G#\L
8G#\J
=25:|!
=
*M3/4
2G#\
4r
==
*-
